!!!!SEGMENT: pl-kc--40102-iii-1-saf--001-030_zielenski-mikolaj--offertoria-totius-anni-in-festo-transfigurationis-domini-gloria-et-divitiae-in-domo-eius.krn
!!!cenid: 16xx:1508
!!!COM: Zieleński, Mikołaj
!!!COM-rismID:
!!!CDT: <1611->1611
!!!CNT: Polish
!!!GTL: Offertoria totius anni
!!!OTL: In festo Transfigurationis Domini/Gloria et divitiae in domo eius
!!!OMV: 030
!!!PDT: 1611
!!!AGN:
!!!SMS-siglum: PL-Kc
!!!SMS-shelfmark: 40102 III/1 Saf.
!!!SMS-shelfwork: 001-030 G
!!!SMS-variant:
!!!SMS-altvar:
!!!NIFC-rismSourceID: 990069886
!!!NIFC-islandoraID:
!!!URL-pdf-islandora:
!!!URL-scan: https://cyfrowe.mnk.pl/dlibra/publication/24235/edition/23926/content?ref=desc @EN{Scan on The National Museum in Krakow Website} @PL{Skany w portalu Biblioteka Cyfrowa Muzeum Narodowego w Krakowie}
!!!ONB-nifc: UWAGA: str. 28. Uwaga: W xml metrum 2/1 do źródłowego C| i odpowiednio 3/1 do 3/2
!!!AIN: 4 organ
!!!key: e:phr
**kern	**kern	**kern	**kern
*group1	*group1	*group1	*group1
*part4	*part3	*part2	*part1
*staff4	*staff3	*staff2	*staff1
*I""Organo	*I	*I	*
*Iorgan	*Iorgan	*Iorgan	*Iorgan
*ICklav	*ICklav	*ICklav	*ICklav
*clefF5	*clefC3	*clefF3	*clefC1
*k[]	*k[]	*k[]	*k[]
*e:phr	*e:phr	*e:phr	*e:phr
*M2/1	*M2/1	*M2/1	*M2/1
*met(C|)	*met(C|)	*met(C|)	*met(C|)
=1	=1	=1	=1
!LO:TX:t=P:problem=all/middle&colon; global	!LO:TX:t=P:problem=all/middle&colon; global	!LO:TX:t=P:problem=all/middle&colon; global	!LO:TX:t=P:problem=all/middle&colon; global
!LO:TX:t=P:problem=all\middle&colon; global	!LO:TX:t=P:problem=all\middle&colon; global	!LO:TX:t=P:problem=all\middle&colon; global	!LO:TX:t=P:problem=all\middle&colon; global
!	!LO:TX:a:t=Sette Tromhoni con Violino	!LO:TX:a:t=Gloria,& diuitiae in domocius	!LO:TX:a:t=In feſto Trasfigurationis Domini. A S.
1r	2.G/	00r	00r
.	4G/	.	.
2.C\	2G/	.	.
.	2E/	.	.
4C\	.	.	.
=2-	=2-	=2-	=2-
2C\	2.c/	.	.
1AA	.	.	.
.	4c/	.	.
.	2c/	.	.
2D\	[y2A/	.	.
=3	=3	=3	=3
!	!LO:N:xstem:cue	!	!
2.C\	4A/]	00r	00r
.	4G/	.	.
.	2c/	.	.
4BB\	.	.	.
2AA/	2.c/	.	.
2AA/	.	.	.
.	4c/	.	.
=4-	=4-	=4-	=4-
2.GG/	4B/	.	.
.	4A/	.	.
.	4B/	.	.
4GG/	4c/	.	.
2GG/	2d\	.	.
2EE/	[y2e\	.	.
=5	=5	=5	=5
!	!LO:N:xstem:cue	!	!
2EE/	4e\]	00r	00r
.	4d\	.	.
2AA/	4c/	.	.
.	4B/	.	.
2.FF/	4c/	.	.
.	4A/	.	.
.	2f\	.	.
4EE/	.	.	.
=6	=6	=6	=6
4DD/	2f\	.	.
4DD/	.	.	.
2AA/	4e\	.	.
.	2e\	.	.
2D\	.	.	.
.	8d\	.	.
.	8c\	.	.
2DD/	2d\	.	.
=7	=7	=7	=7
2AA/	1e	00r	00r
2C\	.	.	.
2C\	2r	.	.
2BB/	2G/	.	.
=8-	=8-	=8-	=8-
1AA	2G/	.	.
.	2c/	.	.
1GG	2c/	.	.
.	2B/	.	.
=9	=9	=9	=9
2.AA/	1A	00r	00r
4BB/	.	.	.
2.C\	2G/	.	.
.	2g\	.	.
4CC/	.	.	.
=10-	=10-	=10-	=10-
2CC/	2g\	.	.
2DD/	2f\	.	.
2.EE/	2.e\	.	.
4FF/	8d\	.	.
.	8c\	.	.
=11	=11	=11	=11
2GG/	4B/	0r	1r
.	4G/	.	.
2CC/	2.c/	.	.
1GG	.	.	2.g/
.	8B/	.	.
.	8A/	.	.
.	2B/	.	.
.	.	.	4g/
=12-	=12-	=12-	=12-
1CC	1c	2.c\	2g/
.	.	.	2e/
.	.	4c\	.
1r	1r	2c\	2.cc\
.	.	[<2A\	.
.	.	.	4cc\
=13	=13	=13	=13
00r	00r	2A\]	2cc\
.	.	2d\	2.a\
.	.	2.c\	.
.	.	.	4g/
.	.	.	2cc\
.	.	4B\	.
=14-	=14-	=14-	=14-
.	.	2A\	2.cc\
.	.	2A\	.
.	.	.	4cc\
.	.	2.G\	4b\
.	.	.	4a\
.	.	.	4b\
.	.	4G\	4cc\
=15	=15	=15	=15
00r	00r	2G\	2dd\
.	.	1E	2.ee\
.	.	.	4dd\
.	.	2A\	4cc\
.	.	.	4b\
=16-	=16-	=16-	=16-
.	.	2.F/	4cc\
.	.	.	4a\
.	.	.	2ff\
.	.	4E/	.
.	.	4D/	2ff\
.	.	4D/	.
.	.	2A\	4ee\
.	.	.	[<4ee\
=17	=17	=17	=17
00r	00r	2d\	4ee\]
.	.	.	8dd\
.	.	.	8cc\
.	.	2D/	2dd\
.	.	2A\	1ee
.	.	2c\	.
=18-	=18-	=18-	=18-
.	.	2c\	2r
.	.	2B\	2g/
.	.	1A	2g/
.	.	.	2cc\
*custos:GG	*custos:g	*custos:G	*custos:cc
!LO:LB:g=original	!LO:LB:g=original	!LO:LB:g=original	!LO:LB:g=original
=19	=19	=19	=19
00r	00r	1G	2cc\
.	.	.	2b\
.	.	2.A\	1a
.	.	4B\	.
=20-	=20-	=20-	=20-
.	.	2c\	1g
.	.	2C/	.
.	.	2.G\	2r
.	.	.	2dd\
.	.	8F/	.
.	.	8E/	.
=21	=21	=21	=21
00r	00r	2D/	2dd\
.	.	2E/	2.cc\
.	.	2F/	.
.	.	.	4b\
.	.	2G\	4b\
.	.	.	8a\
.	.	.	8g\
=22-	=22-	=22-	=22-
.	.	1D	1a
.	.	1G	1b
=23	=23	=23	=23
2.GG/	2.g\	2.G\	2.dd\
4GG/	4g\	4G\	4dd\
2GG/	2g\	2D/	2dd\
1DD/	1f\	4D/	1ff\
.	.	4E/	.
=24-	=24-	=24-	=24-
.	.	4F/	.
.	.	4G\	.
2DD/	2F/	2A\	2ff\
2.AA/	2A/	2.A\	2ee\
.	2a\	.	2ee\
4AA/	.	4A\	.
=25	=25	=25	=25
2DD/	2.a\	1A	1dd
2D\	.	.	.
.	4d\	.	.
2GG/	2d\	1r	1r
2AA/	2c/	.	.
=26-	=26-	=26-	=26-
*	*lig	*	*
4BB/	1B	0r	0r
4GG/	.	.	.
4BB/	.	.	.
4C\	.	.	.
2D\	1A	.	.
2DD/	.	.	.
*	*Xlig	*	*
=27	=27	=27	=27
!LO:SIC:v:t=1GG	!	!	!
1FF	1G	2r	2r
.	.	2G\	2dd\
1r	1r	2G\	2dd\
.	.	2A\	2cc\
=28-	=28-	=28-	=28-
*	*	*	*lig
0r	0r	4B\	1b
.	.	4G\	.
.	.	4B\	.
.	.	4c\	.
.	.	2d\	1a
.	.	2D/	.
*	*	*	*Xlig
=29	=29	=29	=29
2r	2r	2G\	2.b\
2GG/	2d\	2G\	.
.	.	.	4dd\
2DD/	2d\	2F/	2ff\
2EE/	2g\	4C/	2ee\
.	.	4C/	.
=30-	=30-	=30-	=30-
*lig	*	*	*
1FF	1r	2F/	4dd\
.	.	.	4cc\
.	.	2C/	2.cc\
1GG	1G	2.G\	.
.	.	.	8b\
.	.	.	8a\
.	.	.	2b\
.	.	4F/	.
*Xlig	*	*	*
=31	=31	=31	=31
2CC/	2c/	1E	1cc
2C\	2e\	.	.
4GG/	4d\	1r	1r
4.AA/	4.c/	.	.
8AA/	8c/	.	.
4FF/	4d\	.	.
=32-	=32-	=32-	=32-
4CC/	1e	0r	0r
4DD/	.	.	.
4EE/	.	.	.
4DD/	.	.	.
2GG/	4d\	.	.
.	4d\	.	.
4r	2f\	.	.
4DD/	.	.	.
=33	=33	=33	=33
2AA/	4r	0r	0r
.	4c/	.	.
4r	1e	.	.
4CC/	.	.	.
4.C\	.	.	.
8BB/	.	.	.
4.AA/	4r	.	.
.	4c/	.	.
8GG/	.	.	.
=34-	=34-	=34-	=34-
2.FF/	4.f\	00r	00r
.	8e\	.	.
.	4d\	.	.
4FF/	4c/	.	.
4.GG/	4B/	.	.
.	4d\	.	.
8FF/	.	.	.
4.EE/	4.g\	.	.
8DD/	8f\	.	.
=35	=35	=35	=35
4CC/	4e\	.	.
4CC/	4e\	.	.
2GG/	2.d\	.	.
2AA/	.	.	.
.	4c/	.	.
2C\	2c./	.	.
=36-	=36-	=36-	=36-
2.GG/	.	1r	1r
.	8B/	.	.
.	8A/	.	.
.	2B/	.	.
4GG/	.	.	.
1CC	1c	2r	2r
.	.	2c\	2ee\
=37	=37	=37	=37
00r	00r	4G\	4dd\
.	.	4.A\	4.cc\
.	.	8A\	8cc\
.	.	4F/	4dd\
.	.	4C/	1ee
.	.	4D/	.
.	.	4E/	.
.	.	4C/	.
=38-	=38-	=38-	=38-
.	.	2G\	4dd\
.	.	.	4dd\
.	.	4r	2ff\
.	.	4D/	.
.	.	2F/	4r
.	.	.	4cc\
.	.	4r	[<2ee\
.	.	4C/	.
*custos:GG	*custos:g	*custos:c	*custos:ee
!LO:LB:g=original	!LO:LB:g=original	!LO:LB:g=original	!LO:LB:g=original
=39	=39	=39	=39
00r	00r	4.c\	2ee\]
.	.	8B\	.
.	.	4.A\	4r
.	.	.	4cc\
.	.	8G\	.
.	.	2.F/	4.ff\
.	.	.	8ee\
.	.	.	4dd\
.	.	4F/	4cc\
=40-	=40-	=40-	=40-
.	.	4.G\	2b\
.	.	8F/	.
.	.	4E/	4r
.	.	4E/	4g/
.	.	1D	4.dd\
.	.	.	8cc\
.	.	.	4b\
.	.	.	4a\
=41	=41	=41	=41
0r	0r	1.D	4a\
!	!	!	!LO:N:acc=x
.	.	.	8g#X/
.	.	.	8f/
.	.	.	2.g#/
!	!	!	!LO:N:acc=x
.	.	.	8f#X/
.	.	.	8e/
.	.	2D/	2f#/
=42	=42	=42	=42
2r	2r	2G\	2g/
2GG/	2g\	2G\	2dd\
4CC/	4e\	4G\	4cc\
4.GG/	4.d\	4.G\	4.b\
8GG/	8d\	8D/	8b\
4DD/	4f\	4A\	4a\
=43	=43	=43	=43
4AA/	1a	2.E/	1cc
4BB/	.	.	.
4C\	.	.	.
4AA/	.	4F/	.
1E	1e	2G\	2b\
.	.	2E/	2ee\
=44-	=44-	=44-	=44-
!	!	!	!LO:N:acc=x
2r	2r	1.A	1cc#X
!	!LO:N:acc=x	!	!
2AA/	2c#X/	.	.
1DD	1d	.	2r
.	.	2d\	2dd\
=45	=45	=45	=45
2r	2r	1G	1b
2GG/	2B/	.	.
1CC	1c	2r	2r
.	.	2c\	2ee\
=46-	=46-	=46-	=46-
*	*	*lig	*
2r	2r	1c	2.cc\
2CC/	2e\	.	.
.	.	.	4b\
2.FF/	2A/	[y1F	2a\
.	2f\	.	2cc\
4EE/	.	.	.
*	*	*Xlig	*
=47	=47	=47	=47
!	!	!LO:N:vis=4:xstem:cue	!
2DD/	2.a\	2F\]	2.ff\
2DD/	.	2D/	.
.	4a\	.	4ee\
2.GG/	2d\	2D/	4dd\
.	.	.	4cc\
.	2d\	2.G\	2dd\
4FF/	.	.	.
=48-	=48-	=48-	=48-
2EE/	1g	.	2.ee\
.	.	4F/	.
2CC/	.	2E/	.
.	.	.	4dd\
1FF	1r	2.F/	4cc\
.	.	.	4a\
.	.	.	[y2dd\
.	.	4E/	.
=49	=49	=49	=49
!	!	!	!LO:N:xstem:cue
1.GG	2.G/	2D/	4dd\]
.	.	.	8cc\
.	.	.	8b\
.	.	1G	2.cc\
.	4A/	.	.
.	4B/	.	.
.	4c/	.	8b\
.	.	.	8a\
2GG/	4d\	2G\	2b\
.	4G/	.	.
=50-	=50-	=50-	=50-
2CC/	2.c/	1G	1cc
2C\	.	.	.
.	4e\	.	.
2BB/	8g\	1r	1r
.	8f\	.	.
.	8d\	.	.
.	8e\	.	.
2AA/	8f\	.	.
.	8e\	.	.
.	8c\	.	.
.	8d\	.	.
=51	=51	=51	=51
2GG/	4e\	00r	00r
.	4c\	.	.
2FF/	8d\	.	.
.	8c/	.	.
.	8A/	.	.
.	8B/	.	.
*lig	*	*	*
1EE	8c/	.	.
.	8B/	.	.
.	8G/	.	.
.	8A/	.	.
.	4B/	.	.
.	4c/	.	.
=52-	=52-	=52-	=52-
1DD	4d\	.	.
.	4e\	.	.
.	4f\	.	.
.	8e\	.	.
.	8d\	.	.
*Xlig	*	*	*
1AA	8c/	.	.
.	8A/	.	.
.	2d\	.	.
!	!LO:N:acc=x	!	!
.	4c#X/	.	.
=53	=53	=53	=53
1DD	1d	2r	2r
.	.	4r	2dd\
.	.	4D/	.
1r	1r	8A\	2cc\
.	.	8G\	.
.	.	8E/	.
.	.	8F/	.
.	.	8G\	2b\
.	.	8F/	.
.	.	8D/	.
.	.	8E/	.
=54-	=54-	=54-	=54-
0r	0r	2F/	4a\
.	.	.	4cc\
.	.	2E/	8ee\
.	.	.	8dd\
.	.	.	8b\
.	.	.	8cc\
.	.	2D/	8dd\
.	.	.	8cc\
.	.	.	8a\
.	.	.	8b\
.	.	2C/	4cc\
.	.	.	8g/
.	.	.	8a\
*custos:GG	*custos:d	*custos:G	*custos:b
!LO:LB:g=original	!LO:LB:g=original	!LO:LB:g=original	!LO:LB:g=original
=55	=55	=55	=55
0r	0r	2.G\	4b\
.	.	.	4cc\
.	.	.	2.dd\
.	.	8F/	.
.	.	8E/	.
.	.	1D	.
.	.	.	8cc\
.	.	.	8b\
.	.	.	2a\
=56-	=56-	=56-	=56-
2r	2r	2G\	2.b\
2GG/	2d\	2D/	.
.	.	.	4dd\
2FF/	2a\	4AA/	8ff\
.	.	.	8ee\
.	.	4AA/	8cc\
.	.	.	8dd\
2EE/	2g\	4E/	8ee\
.	.	.	8dd\
.	.	4G\	8b\
.	.	.	8cc\
=57	=57	=57	=57
2DD/	2f\	4D/	8dd\
.	.	.	8cc\
.	.	4F/	8a\
.	.	.	8b\
2CC/	4r	4C/	8cc\
.	.	.	8b\
.	4c/	4E/	8g\
.	.	.	8a\
0GG	2B/	4G\	4b\
.	.	8F/	4cc\
.	.	8E/	.
.	2G/	4D/	4dd\
.	.	4C/	4ee\
=58-	=58-	=58-	=58-
.	4d\	2BB/	4b\
.	4d\	.	4.gg\
.	2G/	2E/	.
.	.	.	8ff\
.	.	.	4ee\
1GG	2.g\	1G	1dd
.	4f\	.	.
=59	=59	=59	=59
2CC/	1e	2.G\	1cc
2.C\	.	.	.
.	.	4F/	.
.	2r	4E/	2r
4BB/	.	4D/	.
4AA/	2e\	2E/	2.cc\
4GG/	.	.	.
=60-	=60-	=60-	=60-
1.FF	2A/	1.F	.
.	.	.	4b\
.	2c/	.	4a\
.	.	.	4b\
.	2c/	.	4cc\
.	.	.	4dd\
2CC/	2g\	2E/	2ee\
=61-	=61-	=61-	=61-
1FF	2f\	1F	2cc\
.	2c/	.	1ff
[1CCl/	[1gl\	[1Gl\	.
.	.	.	4ee\
.	.	.	4dd\
=62-	=62-	=62-	=62-
0CC]	0g]	0G]	0eel\
==	==	==	==
*-	*-	*-	*-
!!!system-decoration: g1
!!!RDF**kern: > = above
!!!RDF**kern: < = below
!!!RDF**kern: l = terminal long
!!!ENC: Anastazja Marusiak
!!!END: 2021-12-14
!!!EED: Jędrzej Mróz
!!!EEV: 2021-12-20
